X:1
T:Buffalo Gals
C:Traditional
M:2/4
L:1/8
Q:1/8=200
K:G t=8
|: GB dd/d/ | e/dd/ B2 | d/cc/ A2 | e/dd/ B2 |
GB dd/d/ | e/dd/ B>B | dd/d/ c/B/A | G3 z :|
|: gf ed/d/ | e/dd/ B2 | d/cc/ A2 | e/dd/ B2 |
gf ed/d/ | e/dd/ B>B | dd/d/ c/B/A | G3 z :|
